templates/business-template/img/facebook.svg

<!-- Generated by IcoMoon.io -->
<svg version="1.1" xmlns="http://www.w3.org/2000/svg" width="12" height="20" viewBox="0 0 12 20">
<title>facebook</title>
<path fill="#fe504f" d="M10.703 0.134v2.946h-1.752c-1.373 0-1.629 0.658-1.629 1.607v2.109h3.27l-0.435 3.304h-2.835v8.471h-3.415v-8.471h-2.846v-3.304h2.846v-2.433c0-2.824 1.73-4.364 4.252-4.364 1.205 0 2.243 0.089 2.545 0.134z"></path>
</svg>

<svg xmlns="http://www.w3.org/2000/svg" width="12" height="20"><path fill="#fe504f" d="M10.703.134V3.08H8.951c-1.373 0-1.629.658-1.629 1.607v2.109h3.27l-.435 3.304H7.322v8.471H3.907V10.1H1.061V6.796h2.846V4.363c0-2.824 1.73-4.364 4.252-4.364 1.205 0 2.243.089 2.545.134z"/></svg>
